X:989
T:Blooms of Ban-Accord, The
S:Book-Skinner, Harp and Claymore
Z:Nigel Gatherer
L:1/8
M:2/4
K:A
E | cz cz | B/A/B/c/ AE | dz dz | c/B/c/d/ BE |
e2 ^e2 | gfdB | A/E/^D/E/ cB | B2 A ||
K:E
G/A/ | BE e2 | dc B2 | c2 B>c | BAG G/>A/ |
BE e2 | dc B2 | cd/e/ ed | e2 =d2 ||
K:A
cz cz | B/A/B/c/ AE | dz dz | c/B/c/d/ BE |
e2 ^e2 | gfdB | A/E/^D/E/ cB | B2 Az ||
K:D
P:Trio
F/z/ A/z/ B/z/ A/z/ | dA f2 | d2 e/d/c/d/ | c2 Bz |
EGB^d | eB e>d | d2- d/c/G/c/ | B2 Az |
F/z/ A/z/ B/z/ A/z/ | dA f2 | d2 e/d/c/d/ | c'2 bz |
Be _B2 | Aa g/f/e/d/ | e2 Aa | d2- d E ||
K:A
cz cz | B/A/B/c/ AE | dz dz | c/B/c/d/ BE |
e2 ^e2 | gfdB | A/E/^D/E/ cB | B2 Az ||

